X:1198
L:1/8
M:6/8
K:Gmix
 B | d2 d d2 d | B2 A G2 d | eee c2 e |[M:3/8] !fermata!d2 d |[M:6/8] ggg BAB | 
[M:9/8] cBc d3 B2 d |[M:6/8] d2 c B2 A | G3- G2 |]

